assets/Incoming envelope/Flat/incoming_envelope_flat.svg

<svg width="32" height="32" viewBox="0 0 32 32" fill="none" xmlns="http://www.w3.org/2000/svg">
<g clip-path="url(#clip0_18_21822)">
<path d="M31.604 13.563C31.294 13.205 30.837 13 30.35 13H10.8339C9.92692 13 9.11492 13.706 8.98392 14.606L7.01791 28.106C6.94791 28.592 7.08491 29.078 7.39691 29.437C7.70591 29.794 8.16291 30 8.64992 30H28.167C29.073 30 29.885 29.295 30.017 28.394L31.982 14.894C32.053 14.408 31.915 13.923 31.604 13.563Z" fill="#998EA4"/>
<path d="M10.7251 14.75H30.2412C30.6562 14.75 30.9432 15.086 30.8822 15.5L29.1352 27.5C29.0752 27.914 28.6902 28.25 28.2752 28.25H8.75904C8.34404 28.25 8.05704 27.914 8.11804 27.5L9.86505 15.5C9.92505 15.086 10.3101 14.75 10.7251 14.75Z" fill="#CDC4D6"/>
<path d="M29.2009 27.0503L20.3139 21.2133C19.8799 20.9283 19.2859 20.9283 18.7689 21.2133L8.18293 27.0503L8.00793 28.2503C7.94793 28.6643 8.23493 29.0003 8.64893 29.0003H28.1649C28.5799 29.0003 28.9649 28.6643 29.0249 28.2503L29.2009 27.0503Z" fill="#E1D8EC"/>
<path d="M9.67188 16.825L9.86488 15.5H30.8829L30.6899 16.825L20.5239 22.4301C19.7489 22.8581 18.8579 22.8581 18.2069 22.4301L9.67188 16.825Z" fill="#998EA4"/>
<path d="M9.79883 15.95L9.97383 14.75C10.0338 14.336 10.4188 14 10.8338 14H30.3499C30.7649 14 31.0519 14.336 30.9909 14.75L30.8159 15.95L20.2309 21.787C19.7139 22.072 19.1199 22.072 18.6859 21.787L9.79883 15.95Z" fill="#F3EEF8"/>
<path d="M1 16C1 15.4477 1.44772 15 2 15H6C6.55228 15 7 15.4477 7 16C7 16.5523 6.55228 17 6 17H2C1.44772 17 1 16.5523 1 16Z" fill="#00A6ED"/>
<path d="M1 20C1 19.4477 1.44772 19 2 19H5C5.55228 19 6 19.4477 6 20C6 20.5523 5.55228 21 5 21H2C1.44772 21 1 20.5523 1 20Z" fill="#00A6ED"/>
<path d="M2 23C1.44772 23 1 23.4477 1 24C1 24.5523 1.44772 25 2 25H4C4.55228 25 5 24.5523 5 24C5 23.4477 4.55228 23 4 23H2Z" fill="#00A6ED"/>
</g>
<defs>
<clipPath id="clip0_18_21822">
<rect width="32" height="32" fill="white"/>
</clipPath>
</defs>
</svg>

<svg xmlns="http://www.w3.org/2000/svg" width="32" height="32" fill="none"><g clip-path="url(#a)"><path fill="#998EA4" d="M31.604 13.563A1.653 1.653 0 0 0 30.35 13H10.834c-.907 0-1.72.706-1.85 1.606l-1.966 13.5c-.07.486.067.972.379 1.331.309.357.766.563 1.253.563h19.517c.906 0 1.718-.705 1.85-1.606l1.965-13.5a1.663 1.663 0 0 0-.378-1.331Z"/><path fill="#CDC4D6" d="M10.725 14.75h19.516c.415 0 .702.336.641.75l-1.747 12a.898.898 0 0 1-.86.75H8.76c-.415 0-.702-.336-.641-.75l1.747-12a.898.898 0 0 1 .86-.75Z"/><path fill="#E1D8EC" d="m29.2 27.05-8.886-5.837c-.434-.285-1.028-.285-1.545 0L8.183 27.05l-.175 1.2c-.06.414.227.75.64.75h19.517c.415 0 .8-.336.86-.75l.176-1.2Z"/><path fill="#998EA4" d="m9.672 16.825.193-1.325h21.018l-.193 1.325-10.166 5.605c-.775.428-1.666.428-2.317 0l-8.535-5.605Z"/><path fill="#F3EEF8" d="m9.799 15.95.175-1.2a.898.898 0 0 1 .86-.75H30.35c.415 0 .702.336.64.75l-.174 1.2-10.585 5.837c-.517.285-1.111.285-1.545 0L9.799 15.95Z"/><path fill="#00A6ED" d="M1 16a1 1 0 0 1 1-1h4a1 1 0 1 1 0 2H2a1 1 0 0 1-1-1ZM1 20a1 1 0 0 1 1-1h3a1 1 0 1 1 0 2H2a1 1 0 0 1-1-1ZM2 23a1 1 0 1 0 0 2h2a1 1 0 1 0 0-2H2Z"/></g><defs><clipPath id="a"><path fill="#fff" d="M0 0h32v32H0z"/></clipPath></defs></svg>
